X:293
T:Money Musk
S:Jean Duval
Z:robin.beech@mcgill.ca
M:2/2
L:1/8
K:A
f | eAcA eAdf | eAcA Bcdf | eAcA eaga | fdBe cAA ::
a | aefa eaca | aede ceBa | aefa eaga | fdBe cAA ::
e | ac'ea c'e'eg | gbeg be'ea | ac'ea c'e'eg | gbeg az2 ::
e | e'eac' eac'e | e'egb egbe | e'eac eace | e'egb ega :|
